X:1
T: Wee Nannie
C:
R:Strathspey
Q: 128
K:D
M:4/4
L:1/16
|:F3G|Ad3 c3B A3F D3E|FB3 A3F E4 F3G|Ad3 c3B A3F D3F|E3A cBA^G A4 F3G|
Ad3 c3B A3F D3E|FB3 A3F E4 F3G|Ad3 c3B A3F D3F|A3d fedc d4 ((3A2B2c2) |
d3e f3d e3c A4|B3c d3B A3F D4|d3e f3d e3c A3d|c3e edcB A4 ((3A2B2c2) |
d3e f3d e3c A4|B3c d3B A3F D4|d3e f3d e3c A3d|A3d fedc d4:|
